X:1
T:Dies Dominica, 76.76 D
T:Dies Dominica, 76.76 D
T:John Bacchus Dykes, 1871
T:Public Domain Courtesy of the Cyber Hymnal™
C:John Bacchus Dykes, 1871
Z:Public Domain
Z:Courtesy of the Cyber Hymnal™
%%score ( 1 2 ) ( 3 4 )
L:1/8
Q:1/4=110
M:none
K:Eb
V:1 treble 
V:2 treble 
V:3 bass 
V:4 bass 
V:1
 [EG]2 | [EB]2 [EA]2 [EG]2 [DF]2 | (E4 E2) [Ee]2 | [Ed]2 [Ec]2 A2 z x3 | [EB]6 [B,G]2 | %5
 [GB]2 [FA]2 [EG]2 [DF]2 | [EG]4 G2 [G=A]2 | [GB]2 [Gd]2 [Fc]2 [F=A]2 | G6 [DB]2 | %9
 [EB]2 [Ee]2 [Fd]2 [_Gc]2 | B4 [EB]2 [FA]2 | [EG]2 [EA]2 [EA]2 [Ec]2 | F6 [B,D]2 | %13
 [B,E]2 [EG]2 [EB]2 [Ge]2 | [Ee]4 E2 [EF]2 | [EG]2 [EB]2 [DA]2 [DF]2 | E6 |] %17
V:2
 x2 | x8 | E4 x4 | x4 C3 c2 D | x8 | x8 | x4 G2 x2 | x8 | G6 x2 | x8 | (F2 D2) x4 | x8 | %12
 (E2 D2 C2) x2 | x8 | x4 E2 x2 | x8 | E6 |] %17
V:3
 [E,B,]2 | [E,G,]2 [E,C]2 [E,B,]2 [F,A,]2 | ([G,B,]2 [F,A,]2 [E,G,]2) [C,G,]2 | %3
 [B,,G,]2 [A,,A,]2 E,3 z F, x | [E,G,]6 E,2 | [B,,E,]2 [B,,F,]2 [B,,G,]2 [B,,A,]2 | %6
 (G,2 =A,2) [D,B,]2 [C,E]2 | [D,D]2 [D,B,]2 [D,=A,]2 [D,C]2 | [G,B,]6 [F,A,]2 | %9
 [E,G,]2 [G,B,]2 [F,A,]2 [E,=A,]2 | ([D,B,]2 [B,,A,]2) [C,G,]2 [D,B,]2 | %11
 [E,B,]2 [C,E,]2 [B,,G,]2 [A,,A,]2 | [B,,A,]6 [F,A,]2 | [E,G,]2 [E,B,]2 [_D,G,]2 [D,B,]2 | %14
 (B,2 A,2) [B,,G,]2 [A,,C]2 | [B,,B,]2 [B,,G,]2 [B,,F,]2 [B,,A,]2 | [E,G,]6 |] %17
V:4
 x2 | x8 | x8 | x4 A,,2 A,,2 x2 | x8 | x8 | E,4 x4 | x8 | x8 | x8 | x8 | x8 | x8 | x8 | C,4 x4 | %15
 x8 | x6 |] %17

